!!!SOCIAL_FUNCTION:	songs of war
!!!PDT:	1918

Specific Region: Dakotas, Minnesota, Montana, Nebraska
!!!REG: Dakotas and Montana
!!!LING_GROUP: Siouan
!!!LANG: Tone
!!!OTL@ENG: Behold My Horse
!!!ONM: No. 140
**kern
*Imale
*clefF4
*k[b-e-a-d-g-]
*M2/4
*MM69
8.f
16f
8f
8e-
=2
16.d-
32d-
(8d-
4B-)
=3
8.d-
16d-
16f
8.e-
=4
16.d-
32d-
(8d-
8B-)
16B-
16B-
=5
*MM92
8d-
8d-
12d-
12d-
12d-
=6||
*M3/4
16f
8.d-
4B-
8.B-
16c
=7||
*M2/4
4B-
8.A-
16A-
=8
4A-
4F
=9
(16B-
8.A-)
8.A-
16B-
=10||
*M3/4
(16B-
8.A-)
8.F
16F
8.F
16F
=11||
*M2/4
2F
=12
2F
==
*-
!!!CNT: Native American -- Sioux
!!!MRD: 1911/07//-1914///
!!!OCL: Frances Densmore
!!!YOR1: Teton Sioux Music, Bulletin 61,
!!!YOR2: Bureau of American Ethnology, Smithsonian Institution
!!!PPR: Government Printing Office
!!!PPP: Washington, D.C.
!!!PDT: 1918///
!!!ENC: Craig Stuart Sapp
!!!END: 2002/03/25/
!!!EEV: 2002/03/31/
!!!AGN: War Song/Song of a Typical War Expedition
!!!MPN@@SIO: Shiya'ka
!!!MPN@ENG: Teal Duck
!!!TXO: Teton Sioux
!!!MLC: Standing Rock Reservation, South Dakota, United States of America
!!!ARL: 45.9/-100.7#
!!!catalog: Catalogue No. 468
!!!PPG: 355
!!!EFL: 144/245
!!!VTS: 2123674361
